build/Karasa-Jaga/scalable/devices/printer-network-symbolic.svg

<svg height="16" width="16" xmlns="http://www.w3.org/2000/svg"><g fill="#bebebe"><g transform="translate(-.001538 -1.238281)"><path d="m4.46875 1.2382812v5.5429688h.7089844v-4.8652344h5.6445316v4.8652344h.677734v-5.5429688z" stroke-width="1.056329"/><path d="m2.65625 5.75-.125.34375h-.46875c-.4294694.4522647-.6352799.8914838-.8125 1.34375-.1625648 2.0729246-.1625648 2.95844 0 5.03125h.21875 1.8125v-1.28125c0-.06541.012822-.129403.03125-.1875v-.09375c0-.264852.229098-.5.5-.5h8.34375c.2709 0 .5.235148.5.5v.09375c.0185.05809.03125.122041.03125.1875v1.28125h1.8125.21875c.162677-2.07281.162677-2.9583254 0-5.03125-.208087-.425576-.337074-.7975356-.8125-1.34375h-.46875l-.125-.34375h-1.0625l.09375.34375h-.40625v.90625h-7.90625v-.90625h-.4375l.0625-.34375zm.2558594.3652344h.3164062a.36580844.36580844 0 0 0 .3652344.34375h.072266v.5410156a.36580844.36580844 0 0 0 .365234.3652344h7.90625a.36580844.36580844 0 0 0 .365234-.3652344v-.5410156h.04102a.36580844.36580844 0 0 0 .365234-.34375h.347657l.037105.1035156a.36580844.36580844 0 0 0 .34375.2402344h.267578c.325586.4054692.472827.7098341.652344 1.0839844.144057 1.8599141.1422 2.8079802.01367 4.5605472h-1.31836v-.507813c.08587.04144.151851.113281.259766.113281.410962 0 .677734-.341562.677734-.708984 0-.164141-.07832-.306898-.179687-.425781.19289-.152475.335937-.3578.335937-.605469 0-.4098035-.329348-.8027344-.771484-.8027344-.441815.0002955-.802734.3608039-.802734.8027344 0 .115065.07901.195745.123046.294922-.14958-.124755-.327049-.222656-.53906-.222656h-8.34375c-.4825665 0-.8652344.389453-.8652344.865234v.08203c-.014331.06317-.03125.123745-.03125.199219v.916016h-1.3164062c-.1287215-1.756381-.1331325-2.7021185.0117187-4.5703119.1509434-.3809701.3404583-.7196691.6484375-1.0742187h.2714844a.36580844.36580844 0 0 0 .34375-.2402344zm10.4628906 3.4160156c.238663 0 .40625.1991469.40625.4375 0 .238667-.167587.4375-.40625.4375-.23851 0-.4375-.198833-.4375-.4375 0-.2383531.19899-.4373405.4375-.4375zm-.0625 1.15625c.174437 0 .3125.138177.3125.3125 0 .174551-.138061.34375-.3125.34375-.174436 0-.3125-.169199-.3125-.34375 0-.174323.138064-.312615.3125-.3125zm-12.125 1.8125.1875.84375c.012532.07898.058638.08683.125.09375l1.9375-.03125-.03125-.875zm13.6875 0-2.25.03125-.03125.875 1.9375.03125c.06636-.007.143732-.01477.15625-.09375zm-13.2304688.371094 1.4082032.02148.00586.154297-1.3691407.02148zm12.7734378 0-.04492.199218-1.400391-.02344.0059-.154297z"/><path d="m4.1694919 7.3725797v2.1319592h7.6610161v-2.1319592z" opacity=".5"/></g><path d="m6 13v1h-6v1h6v1h4v-1h6v-1h-6v-1zm1 1h2v1h-2z"/><path d="m7.5 10.690493v2.309507h1v-2.309507z" stroke-width=".792656"/></g></svg>

<?xml version="1.0" encoding="UTF-8" standalone="no"?>
<!-- Created with Inkscape (http://www.inkscape.org/) -->

<svg
   xmlns:dc="http://purl.org/dc/elements/1.1/"
   xmlns:cc="http://creativecommons.org/ns#"
   xmlns:rdf="http://www.w3.org/1999/02/22-rdf-syntax-ns#"
   xmlns:svg="http://www.w3.org/2000/svg"
   xmlns="http://www.w3.org/2000/svg"
   xmlns:sodipodi="http://sodipodi.sourceforge.net/DTD/sodipodi-0.dtd"
   xmlns:inkscape="http://www.inkscape.org/namespaces/inkscape"
   id="svg7854"
   height="16"
   width="16"
   version="1.0"
   inkscape:version="0.92.2 (unknown)"
   sodipodi:docname="printer-network-symbolic.svg"
   inkscape:export-filename="/usr/share/icons/Karasa Jaga/scalable/status/media-playlist-repeat.png"
   inkscape:export-xdpi="90"
   inkscape:export-ydpi="90">
  <metadata
     id="metadata5314">
    <rdf:RDF>
      <cc:Work
         rdf:about="">
        <dc:format>image/svg+xml</dc:format>
        <dc:type
           rdf:resource="http://purl.org/dc/dcmitype/StillImage" />
        <dc:title />
      </cc:Work>
    </rdf:RDF>
  </metadata>
  <sodipodi:namedview
     pagecolor="#ffffff"
     bordercolor="#666666"
     borderopacity="1"
     objecttolerance="10"
     gridtolerance="10"
     guidetolerance="10"
     inkscape:pageopacity="0"
     inkscape:pageshadow="2"
     inkscape:window-width="1366"
     inkscape:window-height="706"
     id="namedview5312"
     showgrid="false"
     inkscape:zoom="27.812867"
     inkscape:cx="3.597593"
     inkscape:cy="6.2164958"
     inkscape:window-x="0"
     inkscape:window-y="0"
     inkscape:window-maximized="1"
     inkscape:current-layer="svg7854"
     showguides="false" />
  <defs
     id="defs7856">
    <linearGradient
       id="linearGradient5841">
      <stop
         style="stop-color:#37e700;stop-opacity:1;"
         offset="0"
         id="stop5843" />
      <stop
         id="stop5849"
         offset="0.5"
         style="stop-color:#3dfe00;stop-opacity:1;" />
      <stop
         style="stop-color:#2aad00;stop-opacity:1;"
         offset="1"
         id="stop5845" />
    </linearGradient>
    <linearGradient
       id="linearGradient4117"
       y2="34.612"
       gradientUnits="userSpaceOnUse"
       x2="22.402"
       y1="15.722"
       x1="22.146999">
      <stop
         id="stop4113"
         style="stop-color:#fff"
         offset="0" />
      <stop
         id="stop4115"
         style="stop-color:#fff;stop-opacity:0"
         offset="1" />
    </linearGradient>
    <linearGradient
       id="linearGradient3696"
       y2="21"
       gradientUnits="userSpaceOnUse"
       x2="15"
       y1="2"
       x1="15">
      <stop
         id="stop3700"
         style="stop-color:#eeeeec"
         offset="0" />
      <stop
         id="stop3702"
         style="stop-color:#babdb6"
         offset=".79220" />
      <stop
         id="stop3704"
         style="stop-color:#a1a59b"
         offset="1" />
    </linearGradient>
    <filter
       id="filter7554"
       color-interpolation-filters="sRGB">
      <feBlend
         mode="darken"
         in2="BackgroundImage"
         id="feBlend7556" />
    </filter>
    <filter
       id="filter7554-7"
       color-interpolation-filters="sRGB">
      <feBlend
         mode="darken"
         in2="BackgroundImage"
         id="feBlend7556-6" />
    </filter>
  </defs>
  <g
     id="g868">
    <g
       transform="translate(-0.0015382,-1.2382812)"
       id="g81">
      <path
         inkscape:connector-curvature="0"
         style="fill:#bebebe;fill-opacity:1;stroke-width:1.05632913"
         d="M 4.46875,1.2382812 V 6.78125 H 5.1777344 V 1.9160156 H 10.822266 V 6.78125 H 11.5 V 1.2382812 Z"
         id="rect363" />
      <path
         inkscape:connector-curvature="0"
         style="fill:#bebebe;fill-opacity:1"
         d="m 2.65625,5.75 -0.125,0.34375 H 2.0625 C 1.6330306,6.5460147 1.4272201,6.9852338 1.25,7.4375 c -0.1625648,2.0729246 -0.1625648,2.95844 0,5.03125 h 0.21875 1.8125 V 11.1875 c 0,-0.06541 0.012822,-0.129403 0.03125,-0.1875 v -0.09375 c 0,-0.264852 0.229098,-0.5 0.5,-0.5 h 8.34375 c 0.2709,0 0.5,0.235148 0.5,0.5 V 11 c 0.0185,0.05809 0.03125,0.122041 0.03125,0.1875 v 1.28125 H 14.5 14.71875 c 0.162677,-2.07281 0.162677,-2.9583254 0,-5.03125 C 14.510663,7.011924 14.381676,6.6399644 13.90625,6.09375 H 13.4375 L 13.3125,5.75 H 12.25 l 0.09375,0.34375 H 11.9375 V 7 H 4.03125 V 6.09375 H 3.59375 L 3.65625,5.75 Z M 2.9121094,6.1152344 H 3.2285156 A 0.36580844,0.36580844 0 0 0 3.59375,6.4589844 H 3.666016 V 7 A 0.36580844,0.36580844 0 0 0 4.03125,7.3652344 H 11.9375 A 0.36580844,0.36580844 0 0 0 12.302734,7 V 6.4589844 h 0.04102 a 0.36580844,0.36580844 0 0 0 0.365234,-0.34375 h 0.347657 L 13.09375,6.21875 a 0.36580844,0.36580844 0 0 0 0.34375,0.2402344 h 0.267578 c 0.325586,0.4054692 0.472827,0.7098341 0.652344,1.0839844 0.144057,1.8599141 0.1422,2.8079802 0.01367,4.5605472 h -1.31836 v -0.507813 c 0.08587,0.04144 0.151851,0.113281 0.259766,0.113281 0.410962,0 0.677734,-0.341562 0.677734,-0.708984 0,-0.164141 -0.07832,-0.306898 -0.179687,-0.425781 0.19289,-0.152475 0.335937,-0.3578 0.335937,-0.605469 0,-0.4098035 -0.329348,-0.8027344 -0.771484,-0.8027344 -0.441815,2.955e-4 -0.802734,0.3608039 -0.802734,0.8027344 0,0.115065 0.07901,0.195745 0.123046,0.294922 -0.14958,-0.124755 -0.327049,-0.222656 -0.53906,-0.222656 H 3.8125 c -0.4825665,0 -0.8652344,0.389453 -0.8652344,0.865234 v 0.08203 c -0.014331,0.06317 -0.03125,0.123745 -0.03125,0.199219 v 0.916016 H 1.5996094 C 1.4708879,10.347134 1.4664769,9.4013965 1.6113281,7.5332031 1.7622715,7.152233 1.9517864,6.813534 2.2597656,6.4589844 H 2.53125 A 0.36580844,0.36580844 0 0 0 2.875,6.21875 Z M 13.375,9.53125 c 0.238663,0 0.40625,0.1991469 0.40625,0.4375 0,0.238667 -0.167587,0.4375 -0.40625,0.4375 -0.23851,0 -0.4375,-0.198833 -0.4375,-0.4375 0,-0.2383531 0.19899,-0.4373405 0.4375,-0.4375 z m -0.0625,1.15625 c 0.174437,0 0.3125,0.138177 0.3125,0.3125 0,0.174551 -0.138061,0.34375 -0.3125,0.34375 C 13.138064,11.34375 13,11.174551 13,11 c 0,-0.174323 0.138064,-0.312615 0.3125,-0.3125 z M 1.1875,12.5 1.375,13.34375 c 0.012532,0.07898 0.058638,0.08683 0.125,0.09375 l 1.9375,-0.03125 -0.03125,-0.875 z m 13.6875,0 -2.25,0.03125 -0.03125,0.875 1.9375,0.03125 c 0.06636,-0.007 0.143732,-0.01477 0.15625,-0.09375 z m -13.2304688,0.371094 1.4082032,0.02148 0.00586,0.154297 -1.3691407,0.02148 z m 12.7734378,0 -0.04492,0.199218 -1.400391,-0.02344 0.0059,-0.154297 z"
         id="polygon76" />
      <path
         style="opacity:0.5;fill:#bebebe;fill-opacity:1;stroke:none;stroke-width:0.63900262"
         id="path3850-3"
         d="M 4.1694919,7.3725797 V 9.5045389 H 11.830508 V 7.3725797 Z"
         inkscape:connector-curvature="0" />
    </g>
    <g
       id="g859">
      <path
         inkscape:connector-curvature="0"
         d="m 6,13 v 1 H 0 v 1 h 6 v 1 h 4 v -1 h 6 v -1 h -6 v -1 z m 1,1 h 2 v 1 H 7 Z"
         style="color:#000000;isolation:auto;mix-blend-mode:normal;solid-color:#000000;fill:#bebebe;color-rendering:auto;image-rendering:auto;shape-rendering:auto"
         id="rect4197"
         sodipodi:nodetypes="cccccccccccccccccc" />
      <path
         style="color:#000000;isolation:auto;mix-blend-mode:normal;solid-color:#000000;fill:#bebebe;stroke-width:0.79265612;color-rendering:auto;image-rendering:auto;shape-rendering:auto"
         d="M 7.5,10.690493 V 13 h 1 v -2.309507 z"
         id="path852"
         inkscape:connector-curvature="0" />
    </g>
  </g>
</svg>
